X: 16775
T: Harlequin, The
R: hornpipe
M: 4/4
K: Gmajor
Bc|:(3dcd gd edBA|GFGA BGDC|B,DGA B2 cB|BAAG A2 Bc|
(3dcd gd edBA|GFGA BGDC|B,DGE CEAc|(3BAG (3AGF G2 Bc:|
|:dgBg dgBg|dG (3Bcd gdBG|AGAB cB (3cde|(3agf (3gfe d2 cd|
BABc dBGd|(3efg (3fga gedc|BA (3Bcd ecAF|AGGF G2 Bc:|

